actions/32/media-record.svg

<?xml version="1.0" encoding="UTF-8" standalone="no"?>
<svg
   xmlns:dc="http://purl.org/dc/elements/1.1/"
   xmlns:cc="http://creativecommons.org/ns#"
   xmlns:rdf="http://www.w3.org/1999/02/22-rdf-syntax-ns#"
   xmlns:svg="http://www.w3.org/2000/svg"
   xmlns="http://www.w3.org/2000/svg"
   xmlns:xlink="http://www.w3.org/1999/xlink"
   version="1.1"
   width="32"
   height="32"
   id="svg4064">
  <defs
     id="defs4066">
    <linearGradient
       x1="71.204002"
       y1="6.2375998"
       x2="71.204002"
       y2="44.341"
       id="linearGradient3205"
       gradientUnits="userSpaceOnUse"
       gradientTransform="matrix(0.35135134,0,0,-0.35135134,-9.203668,24.909301)">
      <stop
         id="stop4013-2"
         style="stop-color:#ffffff;stop-opacity:1"
         offset="0" />
      <stop
         id="stop4015-4"
         style="stop-color:#ffffff;stop-opacity:0.23529412"
         offset="0.50775999" />
      <stop
         id="stop4017-9"
         style="stop-color:#ffffff;stop-opacity:0.15686275"
         offset="0.83456999" />
      <stop
         id="stop4019-0"
         style="stop-color:#ffffff;stop-opacity:0.39215687"
         offset="1" />
    </linearGradient>
    <radialGradient
       cx="23.896"
       cy="3.99"
       r="20.396999"
       id="radialGradient3037"
       gradientUnits="userSpaceOnUse"
       gradientTransform="matrix(0,0.64502634,-0.85142336,0,19.397182,-5.3264752)">
      <stop
         id="stop3244-4"
         style="stop-color:#f8b17e;stop-opacity:1"
         offset="0" />
      <stop
         id="stop3246-5"
         style="stop-color:#e35d4f;stop-opacity:1"
         offset="0.26238" />
      <stop
         id="stop3248-0"
         style="stop-color:#c6262e;stop-opacity:1"
         offset="0.66093999" />
      <stop
         id="stop3250-3"
         style="stop-color:#690b54;stop-opacity:1"
         offset="1" />
    </radialGradient>
    <linearGradient
       x1="7.0776"
       y1="3.0816"
       x2="7.0776"
       y2="45.368999"
       id="linearGradient3039"
       gradientUnits="userSpaceOnUse"
       gradientTransform="matrix(0.27026349,0,0,0.27026353,9.5136756,9.5136758)">
      <stop
         id="stop2492-0"
         style="stop-color:#791235;stop-opacity:1"
         offset="0" />
      <stop
         id="stop2494-6"
         style="stop-color:#c7321f;stop-opacity:1"
         offset="1" />
    </linearGradient>
    <linearGradient
       x1="71.204002"
       y1="6.2375998"
       x2="71.204002"
       y2="44.341"
       id="linearGradient3524"
       gradientUnits="userSpaceOnUse"
       gradientTransform="matrix(0.67567564,0,0,0.67567563,-32.468591,-1.1332679)">
      <stop
         id="stop4013"
         style="stop-color:#ffffff;stop-opacity:1"
         offset="0" />
      <stop
         id="stop4015"
         style="stop-color:#ffffff;stop-opacity:0.23529412"
         offset="0.50775999" />
      <stop
         id="stop4017"
         style="stop-color:#ffffff;stop-opacity:0.15686275"
         offset="0.83456999" />
      <stop
         id="stop4019"
         style="stop-color:#ffffff;stop-opacity:0.39215687"
         offset="1" />
    </linearGradient>
    <radialGradient
       cx="23.896"
       cy="3.99"
       r="20.396999"
       id="radialGradient3013"
       gradientUnits="userSpaceOnUse"
       gradientTransform="matrix(0,1.5835582,-2.0902688,0,24.340178,-36.357109)">
      <stop
         id="stop3244"
         style="stop-color:#ffffff;stop-opacity:1"
         offset="0" />
      <stop
         id="stop3246"
         style="stop-color:#dddddd;stop-opacity:1"
         offset="0.26238" />
      <stop
         id="stop3248"
         style="stop-color:#abacae;stop-opacity:1"
         offset="0.66093999" />
      <stop
         id="stop3250"
         style="stop-color:#89898b;stop-opacity:1"
         offset="1" />
    </radialGradient>
    <linearGradient
       x1="18.379"
       y1="44.98"
       x2="18.379"
       y2="3.0816"
       id="linearGradient3015"
       gradientUnits="userSpaceOnUse"
       gradientTransform="matrix(0.66350462,0,0,0.66350472,0.07588745,0.0758879)">
      <stop
         id="stop2492"
         style="stop-color:#505050;stop-opacity:1"
         offset="0" />
      <stop
         id="stop2494"
         style="stop-color:#aaaaaa;stop-opacity:1"
         offset="1" />
    </linearGradient>
    <radialGradient
       cx="62.625"
       cy="4.625"
       r="10.625"
       id="radialGradient4053"
       gradientUnits="userSpaceOnUse"
       gradientTransform="matrix(1.5058824,0,0,0.37647,-78.305888,26.258824)">
      <stop
         id="stop8840"
         style="stop-color:#000000;stop-opacity:1"
         offset="0" />
      <stop
         id="stop8842"
         style="stop-color:#000000;stop-opacity:0"
         offset="1" />
    </radialGradient>
    <linearGradient
       x1="71.204002"
       y1="6.2375998"
       x2="71.204002"
       y2="44.341"
       id="linearGradient3018"
       xlink:href="#linearGradient3205"
       gradientUnits="userSpaceOnUse"
       gradientTransform="matrix(0.35135134,0,0,-0.35135134,-9.203668,24.909301)" />
    <radialGradient
       cx="23.896"
       cy="3.99"
       r="20.396999"
       id="radialGradient3021"
       xlink:href="#radialGradient3037"
       gradientUnits="userSpaceOnUse"
       gradientTransform="matrix(0,0.64502634,-0.85142336,0,19.397182,-5.3264752)" />
    <linearGradient
       x1="7.0776"
       y1="3.0816"
       x2="7.0776"
       y2="45.368999"
       id="linearGradient3023"
       xlink:href="#linearGradient3039"
       gradientUnits="userSpaceOnUse"
       gradientTransform="matrix(0.27026349,0,0,0.27026353,9.5136756,9.5136758)" />
    <linearGradient
       x1="71.204002"
       y1="6.2375998"
       x2="71.204002"
       y2="44.341"
       id="linearGradient3026"
       xlink:href="#linearGradient3524"
       gradientUnits="userSpaceOnUse"
       gradientTransform="matrix(0.67567564,0,0,0.67567563,-32.468591,-1.1332679)" />
    <radialGradient
       cx="23.896"
       cy="3.99"
       r="20.396999"
       id="radialGradient3029"
       xlink:href="#radialGradient3013"
       gradientUnits="userSpaceOnUse"
       gradientTransform="matrix(0,1.5835582,-2.0902688,0,24.340178,-36.357109)" />
    <linearGradient
       x1="18.379"
       y1="44.98"
       x2="18.379"
       y2="3.0816"
       id="linearGradient3031"
       xlink:href="#linearGradient3015"
       gradientUnits="userSpaceOnUse"
       gradientTransform="matrix(0.66350462,0,0,0.66350472,0.07588745,0.0758879)" />
    <radialGradient
       cx="62.625"
       cy="4.625"
       r="10.625"
       id="radialGradient3034"
       xlink:href="#radialGradient4053"
       gradientUnits="userSpaceOnUse"
       gradientTransform="matrix(1.5058824,0,0,0.37647,-78.305888,26.258824)" />
    <linearGradient
       x1="71.204002"
       y1="6.2375998"
       x2="71.204002"
       y2="44.341"
       id="linearGradient3524-6"
       gradientUnits="userSpaceOnUse"
       gradientTransform="matrix(0.67567564,0,0,0.67567563,-32.468591,-1.1332679)">
      <stop
         id="stop4013-1"
         style="stop-color:#ffffff;stop-opacity:1"
         offset="0" />
      <stop
         id="stop4015-2"
         style="stop-color:#ffffff;stop-opacity:0.23529412"
         offset="0.50775999" />
      <stop
         id="stop4017-93"
         style="stop-color:#ffffff;stop-opacity:0.15686275"
         offset="0.83456999" />
      <stop
         id="stop4019-1"
         style="stop-color:#ffffff;stop-opacity:0.39215687"
         offset="1" />
    </linearGradient>
    <linearGradient
       x1="71.204002"
       y1="6.2375998"
       x2="71.204002"
       y2="44.341"
       id="linearGradient3053"
       xlink:href="#linearGradient3524-6"
       gradientUnits="userSpaceOnUse"
       gradientTransform="matrix(0.24324324,0,0,0.24324324,-1.4486925,9.8320237)" />
    <linearGradient
       id="linearGradient3990">
      <stop
         id="stop3992"
         style="stop-color:#ffffff;stop-opacity:1"
         offset="0" />
      <stop
         id="stop3994"
         style="stop-color:#ffffff;stop-opacity:0"
         offset="1" />
    </linearGradient>
    <linearGradient
       x1="68.313301"
       y1="52.925316"
       x2="68.313301"
       y2="65.922028"
       id="linearGradient3175"
       xlink:href="#linearGradient3990"
       gradientUnits="userSpaceOnUse" />
  </defs>
  <metadata
     id="metadata4069">
    <rdf:RDF>
      <cc:Work
         rdf:about="">
        <dc:format>image/svg+xml</dc:format>
        <dc:type
           rdf:resource="http://purl.org/dc/dcmitype/StillImage" />
        <dc:title />
      </cc:Work>
    </rdf:RDF>
  </metadata>
  <path
     d="m 32,28 c 0,2.2091 -7.1634,4 -16,4 -8.8366,0 -16,-1.791 -16,-4 0,-2.2091 7.1634,-4 16,-4 8.8366,0 16,1.7909 16,4 z"
     id="path8836"
     style="opacity:0.3;fill:url(#radialGradient3034);fill-rule:evenodd" />
  <path
     d="m 16,2.5018 c -7.4478,0 -13.498,6.0503 -13.498,13.498 0,7.4478 6.0503,13.498 13.498,13.498 7.4478,0 13.498,-6.0503 13.498,-13.498 C 29.498,8.552 23.4477,2.5018 16,2.5018 z"
     id="path2555"
     style="fill:url(#radialGradient3029);stroke:url(#linearGradient3031);stroke-width:1.00365412;stroke-linecap:round;stroke-linejoin:round;stroke-miterlimit:4;stroke-dasharray:none;stroke-dashoffset:0" />
  <path
     d="M 28.5,16 C 28.5,22.903 22.903,28.5 16,28.5 9.0965,28.5 3.5,22.903 3.5,16 3.5,9.0961 9.0965,3.5 16,3.5 22.903,3.5 28.5,9.0961 28.5,16 z"
     id="path8655-6"
     style="opacity:0.8;color:#000000;fill:none;stroke:url(#linearGradient3026);stroke-width:0.99999988;stroke-linecap:round;stroke-linejoin:round;stroke-miterlimit:4;stroke-dasharray:none;stroke-dashoffset:0;enable-background:accumulate" />
  <path
     d="m 16,10.502 c -3.0337,0 -5.4982,2.4645 -5.4982,5.4982 0,3.0337 2.4645,5.4982 5.4982,5.4982 3.0337,0 5.4982,-2.4645 5.4982,-5.4982 0,-3.0337 -2.4645,-5.4982 -5.4982,-5.4982 z"
     id="path2555-3"
     style="fill:url(#radialGradient3021);stroke:url(#linearGradient3023);stroke-width:1.00365412;stroke-linecap:round;stroke-linejoin:round;stroke-miterlimit:4;stroke-dasharray:none;stroke-dashoffset:0" />
  <path
     d="M 22.5,16 C 22.5,12.41 19.5896,9.4998 16.0001,9.4998 12.4102,9.4998 9.5,12.4101 9.5,16 c 0,3.5898 2.9102,6.4998 6.5001,6.4998 3.5896,0 6.4999,-2.91 6.4999,-6.4998 z"
     id="path8655-6-1"
     style="opacity:0.5;color:#000000;fill:none;stroke:url(#linearGradient3018);stroke-width:1;stroke-linecap:round;stroke-linejoin:round;stroke-miterlimit:4;stroke-dasharray:none;stroke-dashoffset:0;enable-background:accumulate" />
  <path
     d="m 20.500001,16 c 0,2.485081 -2.01492,4.500001 -4.5,4.500001 C 13.514741,20.500001 11.5,18.485081 11.5,16 c 0,-2.485403 2.014741,-4.5 4.500001,-4.5 2.48508,0 4.5,2.014597 4.5,4.5 z"
     id="path8655-6-9"
     style="opacity:0.5;color:#000000;fill:none;stroke:url(#linearGradient3053);stroke-width:0.99999988;stroke-linecap:round;stroke-linejoin:round;stroke-miterlimit:4;stroke-dasharray:none;stroke-dashoffset:0;enable-background:accumulate" />
  <path
     d="m 78.338799,64.349724 a 11.424408,11.424408 0 1 1 -22.848816,0 11.424408,11.424408 0 1 1 22.848816,0 z"
     transform="matrix(0.26259566,0,0,0.26259566,-1.5714286,-1.8979581)"
     id="path3220"
     style="opacity:0.4;color:#000000;fill:url(#linearGradient3175);fill-opacity:1;stroke:none;stroke-width:1;marker:none;visibility:visible;display:inline;overflow:visible;enable-background:accumulate" />
</svg>

<svg xmlns="http://www.w3.org/2000/svg" xmlns:xlink="http://www.w3.org/1999/xlink" viewBox="0 0 32 32"><defs><linearGradient x1="71.204" y1="6.238" x2="71.204" y2="44.341" id="a" gradientUnits="userSpaceOnUse" gradientTransform="matrix(.35135 0 0 -.35135 -9.204 24.91)"><stop offset="0" stop-color="#fff"/><stop offset=".508" stop-color="#fff" stop-opacity=".235"/><stop offset=".835" stop-color="#fff" stop-opacity=".157"/><stop offset="1" stop-color="#fff" stop-opacity=".392"/></linearGradient><radialGradient cx="23.896" cy="3.99" r="20.397" id="b" gradientUnits="userSpaceOnUse" gradientTransform="matrix(0 .64503 -.85142 0 19.397 -5.326)"><stop offset="0" stop-color="#f8b17e"/><stop offset=".262" stop-color="#e35d4f"/><stop offset=".661" stop-color="#c6262e"/><stop offset="1" stop-color="#690b54"/></radialGradient><linearGradient x1="7.078" y1="3.082" x2="7.078" y2="45.369" id="c" gradientUnits="userSpaceOnUse" gradientTransform="translate(9.514 9.514) scale(.27026)"><stop offset="0" stop-color="#791235"/><stop offset="1" stop-color="#c7321f"/></linearGradient><linearGradient x1="71.204" y1="6.238" x2="71.204" y2="44.341" id="d" gradientUnits="userSpaceOnUse" gradientTransform="translate(-32.47 -1.133) scale(.67568)"><stop offset="0" stop-color="#fff"/><stop offset=".508" stop-color="#fff" stop-opacity=".235"/><stop offset=".835" stop-color="#fff" stop-opacity=".157"/><stop offset="1" stop-color="#fff" stop-opacity=".392"/></linearGradient><radialGradient cx="23.896" cy="3.99" r="20.397" id="e" gradientUnits="userSpaceOnUse" gradientTransform="matrix(0 1.58356 -2.09027 0 24.34 -36.357)"><stop offset="0" stop-color="#fff"/><stop offset=".262" stop-color="#ddd"/><stop offset=".661" stop-color="#abacae"/><stop offset="1" stop-color="#89898b"/></radialGradient><linearGradient x1="18.379" y1="44.98" x2="18.379" y2="3.082" id="f" gradientUnits="userSpaceOnUse" gradientTransform="translate(.076 .076) scale(.6635)"><stop offset="0" stop-color="#505050"/><stop offset="1" stop-color="#aaa"/></linearGradient><radialGradient cx="62.625" cy="4.625" r="10.625" id="g" gradientUnits="userSpaceOnUse" gradientTransform="matrix(1.50588 0 0 .37647 -78.306 26.26)"><stop offset="0"/><stop offset="1" stop-opacity="0"/></radialGradient><linearGradient x1="71.204" y1="6.238" x2="71.204" y2="44.341" id="p" xlink:href="#a" gradientUnits="userSpaceOnUse" gradientTransform="matrix(.35135 0 0 -.35135 -9.204 24.91)"/><radialGradient cx="23.896" cy="3.99" r="20.397" id="n" xlink:href="#b" gradientUnits="userSpaceOnUse" gradientTransform="matrix(0 .64503 -.85142 0 19.397 -5.326)"/><linearGradient x1="7.078" y1="3.082" x2="7.078" y2="45.369" id="o" xlink:href="#c" gradientUnits="userSpaceOnUse" gradientTransform="translate(9.514 9.514) scale(.27026)"/><linearGradient x1="71.204" y1="6.238" x2="71.204" y2="44.341" id="m" xlink:href="#d" gradientUnits="userSpaceOnUse" gradientTransform="translate(-32.47 -1.133) scale(.67568)"/><radialGradient cx="23.896" cy="3.99" r="20.397" id="k" xlink:href="#e" gradientUnits="userSpaceOnUse" gradientTransform="matrix(0 1.58356 -2.09027 0 24.34 -36.357)"/><linearGradient x1="18.379" y1="44.98" x2="18.379" y2="3.082" id="l" xlink:href="#f" gradientUnits="userSpaceOnUse" gradientTransform="translate(.076 .076) scale(.6635)"/><radialGradient cx="62.625" cy="4.625" r="10.625" id="j" xlink:href="#g" gradientUnits="userSpaceOnUse" gradientTransform="matrix(1.50588 0 0 .37647 -78.306 26.26)"/><linearGradient x1="71.204" y1="6.238" x2="71.204" y2="44.341" id="h" gradientUnits="userSpaceOnUse" gradientTransform="translate(-32.47 -1.133) scale(.67568)"><stop offset="0" stop-color="#fff"/><stop offset=".508" stop-color="#fff" stop-opacity=".235"/><stop offset=".835" stop-color="#fff" stop-opacity=".157"/><stop offset="1" stop-color="#fff" stop-opacity=".392"/></linearGradient><linearGradient x1="71.204" y1="6.238" x2="71.204" y2="44.341" id="q" xlink:href="#h" gradientUnits="userSpaceOnUse" gradientTransform="translate(-1.45 9.832) scale(.24324)"/><linearGradient id="i"><stop offset="0" stop-color="#fff"/><stop offset="1" stop-color="#fff" stop-opacity="0"/></linearGradient><linearGradient x1="68.313" y1="52.925" x2="68.313" y2="65.922" id="r" xlink:href="#i" gradientUnits="userSpaceOnUse"/></defs><path d="M32 28c0 2.21-7.163 4-16 4S0 30.21 0 28s7.163-4 16-4 16 1.79 16 4z" opacity=".3" fill="url(#j)" fill-rule="evenodd"/><path d="M16 2.502C8.552 2.502 2.502 8.552 2.502 16c0 7.448 6.05 13.498 13.498 13.498 7.448 0 13.498-6.05 13.498-13.498 0-7.448-6.05-13.498-13.498-13.498z" fill="url(#k)" stroke="url(#l)" stroke-width="1.004" stroke-linecap="round" stroke-linejoin="round"/><path d="M28.5 16c0 6.903-5.597 12.5-12.5 12.5S3.5 22.903 3.5 16C3.5 9.096 9.097 3.5 16 3.5S28.5 9.096 28.5 16z" opacity=".8" color="#000" fill="none" stroke="url(#m)" stroke-linecap="round" stroke-linejoin="round"/><path d="M16 10.502A5.502 5.502 0 0 0 10.502 16 5.502 5.502 0 0 0 16 21.498 5.502 5.502 0 0 0 21.498 16 5.502 5.502 0 0 0 16 10.502z" fill="url(#n)" stroke="url(#o)" stroke-width="1.004" stroke-linecap="round" stroke-linejoin="round"/><path d="M22.5 16a6.5 6.5 0 1 0-13 0 6.5 6.5 0 0 0 13 0z" opacity=".5" color="#000" fill="none" stroke="url(#p)" stroke-linecap="round" stroke-linejoin="round"/><path d="M20.5 16a4.5 4.5 0 1 1-9 0 4.5 4.5 0 0 1 9 0z" opacity=".5" color="#000" fill="none" stroke="url(#q)" stroke-linecap="round" stroke-linejoin="round"/><path d="M78.34 64.35a11.424 11.424 0 1 1-22.85 0 11.424 11.424 0 1 1 22.85 0z" transform="translate(-1.57 -1.898) scale(.2626)" opacity=".4" color="#000" fill="url(#r)" overflow="visible"/></svg>
